svg/clockface/clockfacefathands/clock_03_00_.svg

<?xml version="1.0" encoding="UTF-8" standalone="no"?>
<svg
   height="1000"
   width="1000"
   version="1.1"
   id="clock"
   viewBox="0 0 1000 1000"
   sodipodi:docname="clock_03_00.svg"
   xmlns:inkscape="http://www.inkscape.org/namespaces/inkscape"
   xmlns:sodipodi="http://sodipodi.sourceforge.net/DTD/sodipodi-0.dtd"
   xmlns="http://www.w3.org/2000/svg"
   xmlns:svg="http://www.w3.org/2000/svg">
  <defs
     id="defs10" />
  <sodipodi:namedview
     id="namedview8"
     pagecolor="#ffffff"
     bordercolor="#000000"
     borderopacity="0.25"
     inkscape:showpageshadow="2"
     inkscape:pageopacity="0.0"
     inkscape:pagecheckerboard="0"
     inkscape:deskcolor="#d1d1d1" />
  <g
     id="container">
    <g
       transform="translate(500,500) rotate(270)"
       id="g4">
      <path
         id="clock_03_00"
         style="color:#000000;fill:#000000;stroke-linecap:square;stroke-linejoin:round;-inkscape-stroke:none"
         d="M 0,-40 A 40.004,40.004 0 0 0 -40,0 v 140 40 H 40 V 140 40 h 170 40 V -40 H 210 Z M 380,0 C 380,-209.39421 209.39421,-380 0,-380 -209.39421,-380 -380,-209.39421 -380,0 -380,209.39421 -209.39421,380 0,380 209.39421,380 380,209.39421 380,0 Z M 300,0 C 300,166.15904 166.15904,300 0,300 -166.15904,300 -300,166.15904 -300,0 c 0,-166.15904 133.84096,-300 300,-300 166.15904,0 300,133.84096 300,300 z" />
    </g>
  </g>
</svg>

<svg xmlns="http://www.w3.org/2000/svg" width="1000" height="1000"><path d="M0-40A40.004 40.004 0 0 0-40 0v180h80V40h210v-80h-40ZM380 0c0-209.394-170.606-380-380-380S-380-209.394-380 0-209.394 380 0 380 380 209.394 380 0Zm-80 0c0 166.159-133.841 300-300 300S-300 166.159-300 0-166.159-300 0-300 300-166.159 300 0z" style="-inkscape-stroke:none" transform="rotate(-90 500 0)" stroke-linecap="square" stroke-linejoin="round"/></svg>
